icon-themes/sifr_svg/cmd/lc_decrementlevel.svg

<svg viewBox="0 0 24 24" xmlns="http://www.w3.org/2000/svg"><path d="m3 2v2h20v-2zm-1 4v1c0 .484318.2977958.669482.6835938 1l3.3164062 3-3.3164062 3c-.345695.339244-.6835938.544258-.6835938 1v1h.4121094.5878906c.354218 0 .55232-.0903.75-.28125l4.25-3.939453v-1.615235l-4.25-3.882812c-.19768-.19095-.44055-.28125-.75-.28125h-.5878906zm7 0v2h14v-2zm0 10v2h14v-2zm-6 4v2h20v-2z" fill="#555753"/></svg>

<svg xmlns="http://www.w3.org/2000/svg" viewBox="0 0 24 24">
  <path
     style="fill:#555753"
     d="M 3 2 L 3 4 L 23 4 L 23 2 L 3 2 z M 2 6 L 2 7 C 2 7.484318 2.2977958 7.669482 2.6835938 8 L 6 11 L 2.6835938 14 C 2.3378988 14.339244 2 14.544258 2 15 L 2 16 L 2.4121094 16 L 3 16 C 3.354218 16 3.55232 15.9097 3.75 15.71875 L 8 11.779297 L 8 10.164062 L 3.75 6.28125 C 3.55232 6.0903 3.30945 6 3 6 L 2.4121094 6 L 2 6 z M 9 6 L 9 8 L 23 8 L 23 6 L 9 6 z M 9 16 L 9 18 L 23 18 L 23 16 L 9 16 z M 3 20 L 3 22 L 23 22 L 23 20 L 3 20 z "
     />
</svg>
